X:1
T:La bella Donna
T:Luca Marenzio
T:Source : Il quinto libro delle Villanelle a tre voci---Venetia---Herede di G.Scotto---1587. Editor : André Vierendeels (07/05/17).
T:Notes : Original clefs : G2, C1, F3 Editorial accidentals above the staff Music collected by Attilio Gualtieri
T:La bella Donna
T:©
T:©
C:Luca Marenzio
Z:©
%%score [ 1 2 3 ]
L:1/8
Q:1/4=90
M:4/4
K:C
V:1 treble nm="Soprano 1" snm="S 1"
V:2 treble nm="Soprano 2" snm="S 2"
V:3 treble-8 nm="Tenor" snm="T"
V:1
"^1)" z2 e2 e3 e | d2 c2 B2 c2- | cc c2 d4 | e8 | g8- | g4 d2 e2 | f2 f2 e4 |[M:2/4] d4 :: z2 d2 | %9
w: La bel- la|Don- na mai an-|* zi mia De-|a,|du-|* ra mia|sor- t'e re-|a,|mi|
w: Que- sta sen-|za mia col- pa|_ vo- stra guer-|ra,|mi|_ fa- rà|gir sit- ter-|ra,|dhe|
[M:4/4] edec d2 B2 | c2 A2 B2 Gg | agaf g2 e2 | f2 d2 e4 | c2 f2 e4 | d4 c3 B/A/ | G8 | A8 | %17
w: fug- ge'o- di nas- con- de'o'i-|ra- ta ta- ce, mi|fug- ge'o si nas- con- de'o'i-|ra- ta ta-|ce, o'i- ra-|ta ta- * *||ce,|
w: rac- cen- de- te'o- mai- la|spen- ta fa- ce, dhe|rac- cen- de- te'o- mai la|spen- ta fa-|ce, co- re|mio pa- * *||ce,|
 z4 c2 d2 | e4 d2 c2 | B8 | A8 :| %21
w: co- re|mio pa- ce,|pa-|ce.|
w: co- re|mio pa- ce,|pa-|ce.|
V:2
"^2)""^1)" z2 A2 c3 c | B2 A2 G2 A2- | AA c2 B4 | c4 e4- | e4 d2 c2 | B8 | %6
w: La bel- la|Don- na mai an-|* zi mia De-|a, du-|* ra mia|sor-|
w: S'io va- d'o|sto s'io pen- so|_ per- l'o tac-|cio, in|_ ho- nor|vo-|
"^-natural""^#" ^c2 d4 c2 |[M:2/4] d4 :: z4 |[M:4/4] z4 z2 d2 | edec d2 B2 | c2 A2 B2 GG | %12
w: t'e re- *|a,||mi|fug- ge'o si nas- con- de'o'i-|ra- ta ta- ce, mi|
w: stro'il fac- *|cio,||e|sol di- let- t'a me quan-|to'a voi pia- ce, e|
 AGAF G2 E2 | A4 G2 A2- | AG G3 F F2- | F2 ED E4 | F4 A2 B2 | c8- | c4 B2 A2 | ^G2 A4 G2 | A8 :| %21
w: fug- ge'o si nas- con- de'o'i-|ra- ta ta-|||ce, co- re|mio|_ pa- ce|pa- * *|ce.|
w: sol di- let- t'a me quan-|to'a voi pia-|||ce, vi- ta|mia|_ pa- ce,|pa- * *|ce.|
V:3
"^3)""^1)""^4)" A4 A3 E | G2 A2 E2 A2- | AA A2 G4 | C4 c4- | c4 B2 A2 | G4 G4 | A8 |[M:2/4] D4 :: %8
w: La bel- la|Don- na mai an-|* zi mia De-|a, du-|* ra mia|sor- t'e|re-|a,|
w: Cor- te- se|Da- m'e Ca- va-|* lier ch'u- di-|te, la|_ mie pe-|ne'in- fi-|ni-|te,|
 d4 |[M:4/4] c4 B4 | A2 A2 G4 | F4 E2 E2 | D4 C2 c2 | FGAB c2 A2 | B2 G2 A3 B | c8 | F8 | %17
w: mi|fug- ge'o|si nas- con-|de'o'i- ra- ta|ta- ce, mi|fug- ge'o si nas- con- de'o'i-|ra- ta ta- *||ce,|
w: pre-|ga- te'hu-|mi- le la|mia Dea ve-|ra- ce, pre-|ga- te'hu- mi- le la mia|De- a ve- *|ra-|ce,|
 A2 B2 c4 | C4 D4 | E8 | A,8 :| %21
w: co- re mio|pa- ce,|pa-|ce.|
w: che fac- ci|me- co|pa-|ce.|

